X:1     %Music
T:The Mocking Bird
B:Singing Together, Summer 1951, BBC Publications
F:http://www.folkinfo.org/songs
M:4/4     %Meter
L:1/8     %
K:G
A2 B2 d3 d |A2 BB d4 |AA B/B/B d2 dd |B2 A2 G2 z2 |
w:Hush up, ba-by, don't say a word, Pa-pa's go-ing to buy you a mock-ing bird. 
AB B2 dd z2 |AA B2 d4 |AA B/B/B d2 dd |BB A2 G2 z2 |
w:If it can't whis-tle, and it can't sing. Pa-pa's go-ing to buy you a di-a-mond ring. 
A2 B2 dd d2 |A2 BB d2 z2 |AA B/B/B d2 dd |B2 A2 G2 z2 |
w:If that di-a-mond ring turns to brass, Pa-pa's go-ing to buy you a look-ing glass. 
A2 B2 d d3 |A2 B2 d4 |AA B/B/B d2 dd |B2 A2 G2 z2 |
w:If that look-ing glass gets broke, Pa-pa's go-ing to buy you a Bil-ly goat. 
A2 B2 dd d2 |A2 B2 d4 |AA B/B/B d2 dd |BB A2 G2 z2 |]
w:If that Bi-ly goat runs a-way Pa-pa's go-ing to buy you an-oth-er to-day. 
